X:43
T:Fiddler's Dram
C:Traditional
M:4/4
L:1/8
Q:1/8=440
K:D
A2B2 c2|:d2A2 d2A2|BcdB AGFG|A2Bc dBAG|FDEC D2A/B/c|
d2A2 d2A2|BcdB AGFG|A2Bc dBAG|FDEC D4:|
|:DEF2 DEF2|GFED CA,B,C|D2F2 GBAG|FDEC D2A,/B,/C|
DEF2 DEF2|GFED CA,B,C|D2F2 GBAG|FDEC D4:|
